X:504
T: Rtsel (207a), S. 453
N: T0392
O: Luxemburg
S: Singendes Volk, Esch-Alzette, 1937 posth.]
N: Rammeldingen, hhh Mathias Wagener, 17.2.1934
N: (207b)- Straen, fff Witry, 3.1.1933
R: Rtsel-, Wunsch-, Wettlied]
M: 2/4
L: 1/8
K: G
 | G2GG | G2DB | B2BB | B2G
d | dddd | dc2d | d2dc | B2z2
GGGA | B2BB | A2Ac | B2B2
GGGA | B2BB | A2A2 | G2z2

